X: 3251
T: The Fyket.   a Reel
O: Very Old.
%R: reel
B: Niel Gow & Sons "Complete Repository" v.3 p.25 #1 (top 2 staves continued from p.24)
Z: 2021 John Chambers <jc:trillian.mit.edu>
M: C|
L: 1/8
K: A
% - - - - - - - - - -
V: 1 staves=2
(=g |\
f)>A eA aAe(=g | f)>A eA B=GG (g | f)>A eA aAe(=g | f)>d e=c B=GG(g || f)>A eA aAe(=g |
f)>A eA B=GG(g | f)>A eA ceaf | =gde=c BGG |[| =g | (f/^g/a) (.e.a) cAA=g | (f/^g/a) (.e>.=g) BGGg | (f/^g/a) (.e.a) ceaf |
=g>de=c BGGg || (f/^g/a) (.e.a) cAA=g | (f/^g/a) (e/f/=g) BGGg | faea ceae | =gbeg BGG |]
% - - - - - - - - - -
V: 2 clef=bass middle=d
z | a2a2 a2a2 | a2a2 =g2g2 | a2a2 a2a2 | e2e2 =g2g2 || a2a2 a2a2 |
a2a2 =g2g2 | a2a2 a2a2 | b2=c'2 =g2g |[| z | a2a2 a2a2 | a2a2 =g2g2 | a2a2 a2a2 |
b2=c'2 =g2g2 || a2a2 a2a2 | a2a2 =g2g2 | a2a2 a2a2 | b2=c'2 =g2g |]


